X:188
T:The mills are grinding
T:The custom gap
R:Reel
O:Ireland
B:Roche 1 n146
B:O'Neill's 1379
S:My arrangement from various sources
Z:Transcription, arrangement, chords:Mike Long
M:C|
L:1/8
K:C
"Dm"~D2DE FEFG|"Am"AcGc "Dm"Add2|"Dm"~D2DE "(F)"F2 (3(ded)|"C"cAGE "G"FDEC|\
"Dm"~D2DE FEFG|
"Am"AcGc "Dm"Addg|"Dm"fdec d2AB|"C"{d}cBcG "Dm"EDD2:|\
|:"Dm"~d2dB "C"c2 (3(ABc)|"Dm"d2fd "Am"cAAc|"Dm"dcdB "C"cBcA|
"Am"GEcE {F}"Dm"EDD2|"Dm"~d2dB "C"c2 (3(ABc)|\
"Dm"d2fd "Am"cAAg|"Dm"fdec d2AB|[1 "C"{d}cBcG "Dm"EDD2:|[2 "C"{d}cBcG EFGE|]
